modules/coreui-icons-brand/icons/crunchbase.svg

<svg version="1.1" xmlns="http://www.w3.org/2000/svg" width="32" height="32" viewBox="0 0 32 32">
<title>crunchbase</title>
<path d="M28.802 0h-25.604c-1.76 0.005-3.193 1.438-3.198 3.198v25.604c0.005 1.76 1.438 3.193 3.198 3.198h25.604c1.76-0.005 3.193-1.438 3.198-3.198v-25.604c-0.005-1.76-1.438-3.193-3.198-3.198zM9.396 19.286c1.411 0.646 3.078 0.021 3.724-1.391h2.214c-1.38 5.651-9.698 4.651-9.698-1.167 0-5.823 8.318-6.823 9.698-1.167h-2.214c-0.813-1.786-3.161-2.214-4.547-0.823-1.391 1.385-0.964 3.734 0.823 4.547zM24.521 20.411c-0.422 0.365-0.896 0.646-1.417 0.844-1.495 0.578-3.182 0.391-4.516-0.51v0.51h-2.016v-14.094h2v5.479c0.714-0.484 1.542-0.771 2.401-0.839h0.359c4.552-0.010 6.646 5.656 3.188 8.609zM24.224 16.724c0.031 1.573-1.234 2.87-2.807 2.87s-2.839-1.297-2.802-2.87c0.078-3.656 5.526-3.656 5.609 0z"></path>
</svg>

<svg xmlns="http://www.w3.org/2000/svg" width="32" height="32" viewBox="0 0 32 32"><path d="M28.802 0H3.198A3.212 3.212 0 000 3.198v25.604A3.212 3.212 0 003.198 32h25.604A3.212 3.212 0 0032 28.802V3.198A3.212 3.212 0 0028.802 0zM9.396 19.286a2.81 2.81 0 003.724-1.391h2.214c-1.38 5.651-9.698 4.651-9.698-1.167 0-5.823 8.318-6.823 9.698-1.167H13.12c-.813-1.786-3.161-2.214-4.547-.823-1.391 1.385-.964 3.734.823 4.547zm15.125 1.125a4.707 4.707 0 01-1.417.844 4.907 4.907 0 01-4.516-.51v.51h-2.016V7.161h2v5.479a4.977 4.977 0 012.401-.839h.359c4.552-.01 6.646 5.656 3.188 8.609zm-.297-3.687a2.805 2.805 0 11-5.609 0c.078-3.656 5.526-3.656 5.609 0z"/></svg>
